X: 2187
T: Mrs Mackenzie
Q: "Strathspey."
R: Strathspey.
%R: strathspey
B: James Kerr "Merry Melodies" v.2 p.21 #187
Z: 2016 John Chambers <jc:trillian.mit.edu>
M: C
L: 1/8
K: F
ud |\
vc<cc>uf (f/g/a) (g>f) | vd>vfuc>uf A<G G>ud |\
c/c/c c>uf (f/g/a) (g>f) | d<fc<f A<FF ::\
uc |\
vA>vFuF>uB (A/B/c) (B>A) |
vB<dc>A vB<GG>uc |\
[1 vA<FF>uB (A/B/c) (B>A) | B<dc>e f<FF :|\
[2 A<F c<A d<B vf>uc | (3def (3gab a<f f |]
